packages/ui/assets/svg/frax.svg

<svg class="icon-size" viewBox="0 0 31 31" fill="none" xmlns="http://www.w3.org/2000/svg">
<path d="M15.4831 0.999998C23.4819 0.999998 29.9662 7.48432 29.9662 15.4831C29.9662 23.4819 23.4819 29.9662 15.4831 29.9662C7.48432 29.9662 1 23.4819 1 15.4831C1 7.48432 7.48432 0.999998 15.4831 0.999998Z" fill="black" stroke="black" stroke-width="1.2373" stroke-miterlimit="11.3386"/>
<path d="M7.49348 23.5389C6.88281 22.8977 6.37901 22.3583 6.37392 22.3481C6.36883 22.3328 6.91843 21.7934 7.59526 21.1522C8.27209 20.5059 8.86241 19.941 8.90312 19.9054L8.97945 19.8342L8.84205 19.6052C7.63597 17.6103 7.38662 15.2083 8.14487 12.9997C8.28736 12.5824 8.53163 12.0481 8.74027 11.6969C8.84205 11.5239 8.88785 11.412 8.87767 11.3916C8.8675 11.3713 8.25173 10.7199 7.50875 9.94126C6.76576 9.16774 6.16018 8.52145 6.15 8.51127C6.14491 8.496 8.22629 6.48587 8.42476 6.32303L8.50109 6.25687L9.67664 7.48331C10.3229 8.16014 10.9285 8.79625 11.0201 8.89294L11.1931 9.06597L11.356 8.96419C12.1855 8.43494 13.1575 8.06853 14.2312 7.87515C14.7707 7.77846 15.7986 7.75302 16.3737 7.82426C17.4831 7.95149 18.5823 8.32298 19.483 8.8675L19.7171 9.00999L19.9665 8.76572C20.511 8.23647 22.5466 6.30267 22.5669 6.29249C22.5873 6.28232 24.8213 8.61814 24.8162 8.64867C24.8111 8.66394 23.2794 10.1346 22.343 11.015L22.0326 11.3102L22.1751 11.5443C23.371 13.5341 23.6203 15.9462 22.8468 18.1701C22.7349 18.4958 22.3939 19.2286 22.1954 19.5644L22.0987 19.7324L23.4066 21.1013C24.1241 21.8494 24.7094 22.4753 24.7043 22.4906C24.6839 22.5415 22.3939 24.7043 22.3634 24.7043C22.343 24.7043 21.768 24.119 21.081 23.3964C20.3939 22.6789 19.824 22.0886 19.8087 22.0835C19.7985 22.0784 19.7324 22.1089 19.6713 22.1547C19.4983 22.2718 19.0606 22.5109 18.8164 22.6229C18.0734 22.9639 17.3813 23.1725 16.5772 23.2896C16.1599 23.3506 14.9081 23.3608 14.5213 23.3048C13.5951 23.1725 12.8369 22.9435 12.0634 22.5567C11.8394 22.4499 11.5799 22.3074 11.4781 22.2463L11.2949 22.1344L11.0863 22.3379C10.9743 22.4499 10.4654 22.9282 9.96162 23.4117C9.45781 23.89 8.94383 24.3786 8.8217 24.5007L8.59778 24.7195L7.49348 23.5389ZM16.0378 20.2209C16.847 20.1242 17.5696 19.8494 18.2362 19.3812C18.5772 19.1421 19.0861 18.6332 19.3253 18.2922C20.684 16.3686 20.4245 13.7529 18.7146 12.1499C17.2541 10.786 15.1422 10.4807 13.3661 11.3865C12.0837 12.043 11.1779 13.244 10.8878 14.6842C10.7962 15.1422 10.7962 15.9971 10.8878 16.45C10.9743 16.8978 11.0914 17.2184 11.3102 17.6663C12.1855 19.427 14.0837 20.455 16.0378 20.2209Z" fill="white"/>
</svg>

<svg class="icon-size" viewBox="0 0 31 31" fill="none" xmlns="http://www.w3.org/2000/svg"><path d="M15.483 1c7.999 0 14.483 6.484 14.483 14.483 0 7.999-6.484 14.483-14.483 14.483C7.484 29.966 1 23.482 1 15.483 1 7.484 7.484 1 15.483 1Z" fill="#000" stroke="#000" stroke-width="1.237" stroke-miterlimit="11.339"/><path d="M7.493 23.539a83.167 83.167 0 0 1-1.12-1.19c-.004-.016.545-.556 1.222-1.197.677-.646 1.267-1.211 1.308-1.247l.076-.07-.137-.23A7.813 7.813 0 0 1 8.145 13c.142-.418.387-.952.595-1.303.102-.173.148-.285.138-.305-.01-.02-.626-.672-1.37-1.45-.742-.774-1.348-1.42-1.358-1.43-.005-.016 2.076-2.026 2.275-2.189l.076-.066 1.176 1.226c.646.677 1.252 1.313 1.343 1.41l.173.173.163-.102c.83-.53 1.802-.895 2.875-1.089.54-.097 1.568-.122 2.143-.05a7.845 7.845 0 0 1 3.109 1.042l.234.143.25-.244c.544-.53 2.58-2.463 2.6-2.474.02-.01 2.254 2.326 2.25 2.357-.006.015-1.538 1.486-2.474 2.366l-.31.295.142.234a7.827 7.827 0 0 1 .672 6.626 10.65 10.65 0 0 1-.652 1.394l-.096.168 1.308 1.37c.717.747 1.302 1.373 1.297 1.389-.02.05-2.31 2.213-2.34 2.213-.021 0-.596-.585-1.283-1.308a70.073 70.073 0 0 0-1.272-1.313c-.01-.005-.077.026-.138.072a7.885 7.885 0 0 1-3.094 1.135c-.417.06-1.669.07-2.056.015-.926-.133-1.684-.361-2.458-.748a8.485 8.485 0 0 1-.585-.31l-.183-.113-.209.204c-.112.112-.62.59-1.124 1.074-.504.478-1.018.967-1.14 1.089l-.224.218-1.105-1.18Zm8.545-3.318a4.714 4.714 0 0 0 2.198-.84c.341-.239.85-.748 1.09-1.089a4.695 4.695 0 0 0-.611-6.142 4.676 4.676 0 0 0-5.349-.764 4.724 4.724 0 0 0-2.478 3.298c-.092.458-.092 1.313 0 1.766.086.448.203.768.422 1.216a4.67 4.67 0 0 0 4.728 2.555Z" fill="#fff"/></svg>
